svg/tooth.svg

<svg xmlns="http://www.w3.org/2000/svg" viewBox="0 0 24 24"><path d="M7 2C4 2 2 5 2 8c0 2.11 1 5 2 6s2 8 4 8c4.54 0 2-7 4-7s-.54 7 4 7c2 0 3-7 4-8s2-3.89 2-6c0-3-2-6-5-6s-3 1-5 1-2-1-5-1"/></svg>

<?xml version="1.0" encoding="UTF-8"?><!DOCTYPE svg PUBLIC "-//W3C//DTD SVG 1.1//EN" "http://www.w3.org/Graphics/SVG/1.1/DTD/svg11.dtd"><svg xmlns="http://www.w3.org/2000/svg" xmlns:xlink="http://www.w3.org/1999/xlink" version="1.1" id="mdi-tooth" width="24" height="24" viewBox="0 0 24 24"><path d="M7,2C4,2 2,5 2,8C2,10.11 3,13 4,14C5,15 6,22 8,22C12.54,22 10,15 12,15C14,15 11.46,22 16,22C18,22 19,15 20,14C21,13 22,10.11 22,8C22,5 20,2 17,2C14,2 14,3 12,3C10,3 10,2 7,2Z" /></svg>
